X: 21212
M: 2/4
L: 1/16
K: G
V: 1 name="6"
|:\
g3f (efge) | a3g gfed | geae fdag | f2e2d2 cB |\
c2a>c B2g>B | GBAG GFED | GDAD BDcD | BDAD "^D.C."G4 :|


